images/footer/faceebook.svg

<svg width="35" height="35" viewBox="0 0 35 35" fill="none" xmlns="http://www.w3.org/2000/svg">
<path d="M34.4531 17.875C34.4531 8.50977 26.8652 0.921875 17.5 0.921875C8.13477 0.921875 0.546875 8.50977 0.546875 17.875C0.546875 26.3516 6.69922 33.3926 14.834 34.623V22.7969H10.5273V17.875H14.834V14.1836C14.834 9.94531 17.3633 7.55273 21.1914 7.55273C23.1055 7.55273 25.0195 7.89453 25.0195 7.89453V12.0645H22.9004C20.7812 12.0645 20.0977 13.3633 20.0977 14.7305V17.875H24.8145L24.0625 22.7969H20.0977V34.623C28.2324 33.3926 34.4531 26.3516 34.4531 17.875Z" fill="white"/>
</svg>

<svg xmlns="http://www.w3.org/2000/svg" fill="none" viewBox="0 0 35 35"><path fill="#fff" d="M34.453 17.875C34.453 8.51 26.865.922 17.5.922 8.135.922.547 8.51.547 17.875c0 8.477 6.152 15.518 14.287 16.748V22.797h-4.307v-4.922h4.307v-3.691c0-4.239 2.53-6.631 6.357-6.631 1.915 0 3.829.342 3.829.342v4.17H22.9c-2.119 0-2.802 1.298-2.802 2.665v3.145h4.716l-.752 4.922h-3.964v11.826c8.134-1.23 14.355-8.271 14.355-16.748Z"/></svg>
